X: 073
M: C|
L: 1/8
K: Bb
V: 1
|: B2df edcB | ceGc (BA)GF | DFBd EGcd | (ed)cB ([B2F2][A2F2]) | B2df (ed)cB |
ceGc BAGF | DFBd EGce | dBFA B2B,2 :: geBG Egbg | fdBF Dfbf | ecGE Ccec |
dBFD B,2(FE) | DFBd EGce | Acfa | Bdfb | (gf)gd (ed)cB | FBAc B2B,2 :|
V: 2 clef=bass middle=d
|: B2b2 B2d2 | e2=e2 f2_e2 | [d2B2]d2 e2E2 | e2=e2 fedc | B2b2 B2d2 |
e2=e2 f2_e2 | B2d2 e2E2 | f2F2 B2B,2 :: z2e2 g2e2 | z2B2 d2B2 | z2c2 e2A2 |


